X:1
T:Brich an, o schönes Morgenlicht
T:J.S. Bach
T:Brich an, o schönes Morgenlicht
T:Public Domain Typeset by Patrice Reich kbio@free.fr
C:J.S. Bach
Z:Public Domain
Z:Typeset by Patrice Reich kbio@free.fr
%%score 1 2 3 4
L:1/8
Q:1/4=60
M:4/4
K:G
V:1 treble 
V:2 treble 
V:3 treble-8 
V:4 bass 
V:1
 G2 | G2 A2 B^c d2 | d2 ^c2 !fermata!d2 B2 | =c2 B2 A2 B2 | A4 !fermata!G2 :| A2 | A2 B2 c2 c2 | %7
w: Brich|an, o schö- ~- ~nes|Mor- gen- licht, und|lass den Him- mel|ta- gen!|||
w: Du|Hir- ten- volk,- ~ er-|schre- ke nicht, weil|dir die En- gel|sa- gen:|dass|die- ses schwa- che|
 BA B2 !fermata!A2 B2 | B2 B2 cd e2 | e2 ^d2 !fermata!e2 f2 | g2 B2 c2 B2 | A4 !fermata!A2 d2 | %12
w: |||||
w: Knä- ~- ~be- lein soll|un- ser Trost- ~ und|Freu- de sein, da-|zu den Sa- tan|zwin- gen und|
 e2 d2 c2 Bc | A4 !fermata!G2 |] %14
w: ||
w: letzt- lich Frie- den- ~|brin- gen.|
V:2
 D2 | E2 F2 (DE) F2 | (EF) G2 !fermata!F2 F2 | E2 (DE) F2 G2 | (G2 F2) !fermata!D2 :| (FG) | %6
w: Brich|an, o schö- * nes|Mor- * gen- licht, und|lass den * Him- mel|ta- * gen!||
w: Du|Hir- ten- volk, * er-|schre- * ke nicht, weil|dir die * En- gel|sa- * gen:|dass *|
 A3 ^G (AG) A2 | A2 ^G2 !fermata!E2 (E^D) | E2 E2 (EF) (GF) | (FG) A2 !fermata!G2 A2 | %10
w: ||||
w: die- ses schwa- * che|Knä- be- lein soll *|un- ser Trost * und *|Freu- * de sein, da-|
 (GA) B2 (BA) (AG) | G4 !fermata!F2 (GF) | E2 F2 (GA) D2 | (E2 D2) !fermata!D2 |] %14
w: ||||
w: zu * den Sa- * tan *|zwin- gen und *|letzt- lich Frie- * den|brin- * gen.|
V:3
 B2 | (Bc-) cd (BA) A2 | A2 A2 !fermata!A2 (BA) | (GA) (Bc) d2 d2 | (d3 c) !fermata!B2 :| (de) | %6
w: Brich|an, * * o schö- * nes|Mor- gen- licht, und *|lass * den * Him- mel|ta- * gen!||
w: Du|Hir- * * ten- volk, * er-|schre- ke nicht, weil *|dir * die * En- gel|sa- * gen:|dass *|
 (fe) d2 e2 f2 | B2 (ed) !fermata!c2 (GA) | (Bc) (de) c2 ^c2 | B2 B2 !fermata!B2 d2 | %10
w: ||||
w: die- * ses schwa- che|Knä- be- * lein soll *|un- * ser * Trost und|Freu- de sein, da-|
 d2 g2 (GA) B2 | (ed e^c) !fermata!d2 d2 | (d=c) (cB) (BA) G2 | (GF/E/ F2) !fermata!B2 |] %14
w: ||||
w: zu den Sa- * tan|zwin- * * * gen und|letzt- * lich * Frie- * den|brin- * * * gen.|
V:4
 (G,F,) | E,2 D,2 G,2 (F,G,) | A,2 A,,2 !fermata!D,2 ^D,2 | (E,F,) (G,C,) (CB,) (A,G,) | %4
w: Brich *|an, o schö- nes *|Mor- gen- licht, und|lass * den * Him- * mel *|
w: Du *|Hir- ten- volk, er- *|schre- ke nicht, weil|dir * die * En- * gel *|
 (D2 D,2) !fermata!G,2 :| D,2 | (DC) B,2 A,2 ^D,2 | E,2 E,2 !fermata!A,,2 (E,F,) | %8
w: ta- * gen!||||
w: sa- * gen:|dass|die- * ses schwa- che|Knä- be- lein soll *|
 G,2 ^G,2 A,2 ^A,2 | B,2 B,,2 !fermata!E,2 (DC) | (B,A,) (G,F,) (E,F,) (G,E,) | %11
w: |||
w: un- ser Trost und|Freu- de sein, da- *|zu * den * Sa- * tan *|
 (^C,B,, C,A,,) !fermata!D,2 B,,2 | C,2 D,2 (E,F,) G,2 | (C,2 D,2) !fermata!G,,2 |] %14
w: |||
w: zwin- * * * gen und|letzt- lich Frie- * den|brin- * gen.|

